X:1
T:James Gibb editions
T:Todos los bienes - Encina
T:#
%%score [ 1 2 3 4 ]
L:1/8
Q:1/4=90
M:4/4
K:C
V:1 treble nm="Soprano" snm="S"
V:2 treble nm="Alto" snm="A"
V:3 treble-8 nm="Tenor" snm="T"
V:4 bass nm="Bass" snm="B"
V:1
"^Todos los bienes""^Juan del Encina\n(1468-1529)" A2 A2 A4 | G2 G2 F4 | E4 E4 | E2 F2 G4 | %4
w: To- dos los|bie- nes del|mun- do|pa- san pres-|
w: La me- jor|y más ven-|tu- ra|pa- sa pres-|
 F2 D2 E4 |[M:4/4] D4 D4 | d2 d2 B4 | c2 A4 ^G2 | A4 !fermata!A4 || E2 F2 G4 | F2 D2 E4 | D4 D4 | %12
w: to~~y su me-|mo- ria,|sal- vo la|fa- ma~~y la|glo- ria.|El tiem- po|lle- va los|u- nos,|
w: to~~y su me-|mo- ria,|sal- vo la|fa- ma~~y la|glo- ria.|La fa- ma|bi- ve se-|gu- ra,|
 d2 d2 B4 | c2 A4 ^G2 | A4 A4 | E2 F2 G4 | F2 D2 E4 | D4 D4 | d2 d2 B4 | c2 A4 ^G2 | A4 A4 || %21
w: a~~o- tros for-|tu- na y|suer- te.|Y~~al ca- bo|vie- ne la|muer- te,|que no nos|de- xa nin-|gu- nos.|
w: aun- que se|mue- ra el|due- ño;|los o- tros|bie- nes son|sue- ño|y~~u- na çier-|ta se- pol-|tu- ra.|
 A2 A2 A4 | G2 G2 F4 | E4 E4 | E2 F2 G4 |[M:4/4] F2 D2 E4 | D4 D4 | d2 d2 B4 | c2 A4 ^G2 | %29
w: To- dos los|bie- nes del|mun- do|pa- san pres-|to~~y su me-|mo- ria,|sal- vo la|fa- ma~~y la|
w: La me- jor|y más ven-|tu- ra|pa- sa pres|to~~y su me-|mo- ria,|sal- vo la|fa- ma~~y la|
 A4 !fermata!A4 |] %30
w: glo- ria.|
w: glo- ria.|
V:2
 F2 F2 F4 | E2 E2 D4 | ^C4 C4 | ^C2 D2 E4 | D2 D4 ^C2 |[M:4/4] D4 D4 | G2 G2 G4 | E2 (FD) E4 | %8
w: To- dos los|bie- nes del|mun- do|pa- san pres-|to~~y su me-|mo- ria,|sal- vo la|fa- ma~~y * la|
w: La me- jor|y más ven-|tu- ra|pa- sa pres-|to~~y su me-|mo- ria,|sal- vo la|fa- ma~~y * la|
 E4 !fermata!E4 || C2 D2 E4 | D2 D4 ^C2 | D4 D4 | G2 G2 G4 | E2 (FD) E4 | E4 E4 | C2 D2 E4 | %16
w: glo- ria.|El tiem- po|lle- va los|u- nos,|a~~o- tros for-|tu- na * y|suer- te.|Y~~al ca- bo|
w: glo- ria.|La fa- ma|bi- ve se-|gu- ra,|aun- que se|mue- ra * el|due- ño;|los o- tros|
 D2 D4 ^C2 | D4 D4 | G2 G2 G4 | E2 (FD) E4 | E4 E4 || F2 F2 F4 | E2 E2 D4 | ^C4 C4 | ^C2 D2 E4 | %25
w: vie- ne la|muer- te,|que no nos|de- xa * nin-|gu- nos.|To- dos los|bie- nes del|mun- do|pa- san pres-|
w: bie- nes son|sue- ño|y~~u- na çier-|ta se\- * pol-|tu- ra.|La me- jor|y más ven-|tu- ra|pa- sa pres|
[M:4/4] D2 D4 ^C2 | D4 D4 | G2 G2 G4 | E2 (FD) E4 | E4 !fermata!E4 |] %30
w: to~~y su me-|mo- ria,|sal- vo la|fa- ma~~y * la|glo- ria.|
w: to~~y su me-|mo- ria,|sal- vo la|fa- ma~~y * la|glo- ria.|
V:3
 c2 c2 c4 | c2 c2 A4 | A4 A4 | A2 A2 c4 | A2 (GF) A4 |[M:4/4][K:treble-8] A4 A4 | B2 B2 d4 | %7
w: To- dos los|bie- nes del|mun- do|pa- san pres-|to~~y su * me-|mo- na,|sal- vo la|
w: La me- jor|y más ven-|tu- ra|pa- sa pres-|to~~y su * me-|mo- ria,|sal- vo la|
 (c3 A) B2 B2 | A4 !fermata!A4 || A2 A2 c4 | A2 G2 A4 | A4 A4 | B2 B2 d4 | c3 A B4 | A4 A4 | %15
w: fa\- * ma~~y la|glo- ria.|El tiem- po|lle- va los|u- nos,|a~~o- tros for-|tu- na y|suer- te.|
w: fa\- * ma~~y la|glo- ria.|La fa- ma|bi- ve se-|gu- ra,|aun- que se|mue- ra el|due- ño;|
 A2 A2 c4 | A2 G2 A4 | A4 A4 | B2 B2 d4 | c3 A B4 | A4 A4 || c2 c2 c4 | c2 c2 A4 | A4 A4 | %24
w: Y~~al ca- bo|vie- ne la|muer- te,|que no nos|de- xa nin-|gu- nos.|To- dos los|bie- nes del|mun- do|
w: los o- tros|bie- nes son|sue- ño|y~~u- na çier-|ta se- pol-|tu- ra.|La me- jor|y más ven-|tu- ra|
 A2 A2 c4 |[M:4/4][K:treble-8] A2 (GF) A4 | A4 A4 | B2 B2 d4 | (c3 A) B2 B2 | A4 !fermata!A4 |] %30
w: pa- san pres-|to~~y su * me-|mo- ria,|sal- vo la|fa\- * ma~~y la|glo- ria.|
w: pa- san pres-|to~~y su * me-|mo- ria,|sal- vo la|fa\- * ma~~y la|glo- ria.|
V:4
 F,2 F,2 F,4 | C,2 C,2 D,4 | A,,4 A,,4 | A,,2 D,2 C,4 | D,2 _B,,2 A,,4 |[M:4/4] D,4 D,4 | %6
w: To- dos los|bie- nes del|mun- do|pa- san pres-|to~~y su me-|mo- ria,|
w: La me- jor|y más ven-|tu- ra|pa- sa pres-|to~~y su me-|mo- ria,|
 G,,2 G,,2 G,4 | C,2 F,2 E,4 | A,,4 !fermata!A,,4 || A,,2 D,2 C,4 | D,2 _B,,2 A,,4 | D,4 D,4 | %12
w: sal- vo la|fa- ma~~y la|glo- ria.|El tiem- po|lle- va los|u- nos,|
w: sal- vo la|fa- ma~~y la|glo- ria.|La fa- ma|bi- ve se-|gu- ra,|
 G,,2 G,,2 G,4 | C,2 F,2 E,4 | A,,4 A,,4 | A,,2 D,2 C,4 | D,2 _B,,2 A,,4 | D,4 D,4 | %18
w: a~~o- tros for-|tu- na y|suer- te.|Y~~al ca- bo|vie- ne la|muer- te,|
w: aun- que se|mue- ra el|due- ño;|los o- tros|bie- nes son|sue- ño|
 G,,2 G,,2 G,4 | C,2 F,2 E,4 | A,,4 A,,4 || F,2 F,2 F,4 | C,2 C,2 D,4 | A,,4 A,,4 | A,,2 D,2 C,4 | %25
w: que no nos|de- xa nin-|gu- nos.|To- dos los|bie- nes del|mun- do|pa- san pres-|
w: y~~u- na çier-|ta se- pol-|tu- ra.|La me- jor|y más ven-|tu- ra|pa- sa pres|
[M:4/4] D,2 _B,,2 A,,4 | D,4 D,4 | G,,2 G,,2 G,4 | C,2 F,2 E,4 | A,,4 !fermata!A,,4 |] %30
w: to~~y su me-|mo- ria,|sal- vo la|fa- ma~~y la|glo- ria.|
w: to~~y su me-|mo- ria,|sal- vo la|fa- ma~~y la|glo- ria.|

